images/logo5.svg

<svg width="63" height="47" viewBox="0 0 63 47" fill="none" xmlns="http://www.w3.org/2000/svg">
<path d="M5.01691 38.7352C5.26058 39.0114 5.39039 39.3572 5.38359 39.7122C5.39602 39.9437 5.35141 40.1749 5.25305 40.3885C5.1547 40.6021 5.00512 40.7927 4.8154 40.9463C4.34202 41.2736 3.75556 41.4336 3.1637 41.3969H0.26001V35.2055H3.10424C3.66567 35.1713 4.22264 35.3167 4.67996 35.6168C4.86364 35.7576 5.00909 35.9355 5.10483 36.1365C5.20056 36.3376 5.24397 36.5562 5.23163 36.7753C5.24832 37.1168 5.13116 37.4526 4.90129 37.722C4.6806 37.968 4.37561 38.1385 4.0358 38.2059C4.42102 38.2703 4.76874 38.4579 5.01691 38.7352ZM1.6111 37.8006H2.82675C3.10304 37.8193 3.37744 37.7463 3.59975 37.5949C3.69102 37.5192 3.76204 37.4252 3.80729 37.3203C3.85255 37.2154 3.87083 37.1024 3.86072 36.99C3.8693 36.878 3.85064 36.7657 3.80608 36.661C3.76152 36.5564 3.69218 36.4622 3.60305 36.3851C3.37409 36.2294 3.09116 36.1553 2.80693 36.1764H1.6111V37.8006ZM3.71867 40.175C3.81624 40.0974 3.89293 40.0003 3.94278 39.8912C3.99263 39.7821 4.01429 39.6639 4.00607 39.5458C4.01351 39.4264 3.99086 39.307 3.93989 39.1969C3.88891 39.0868 3.81096 38.9888 3.71206 38.9107C3.47422 38.7492 3.18171 38.6699 2.88621 38.6868H1.6111V40.3897H2.90273C3.19346 40.4051 3.48123 40.3293 3.71867 40.175Z" fill="#AFB1B8"/>
<path d="M10.8309 41.3969L9.24858 38.9772H8.65397V41.3969H7.29297V35.2055H9.86962C10.5191 35.164 11.1612 35.3524 11.6634 35.7318C12.0236 36.0678 12.2408 36.5106 12.2759 36.9803C12.3111 37.45 12.1618 37.9158 11.855 38.2937C11.5371 38.6271 11.1028 38.8494 10.6261 38.9228L12.3108 41.3969H10.8309ZM8.65397 38.1333H9.76722C10.5402 38.1333 10.9267 37.8208 10.9267 37.1957C10.9346 37.0681 10.9134 36.9403 10.8645 36.8205C10.8156 36.7008 10.74 36.5916 10.6426 36.5C10.3983 36.314 10.0837 36.2238 9.76722 36.249H8.64076L8.65397 38.1333Z" fill="#AFB1B8"/>
<path d="M18.2702 40.1506H15.5581L15.0791 41.3968H13.652L16.1428 35.2749H17.6855L20.1663 41.3968H18.7393L18.2702 40.1506ZM17.9068 39.213L16.9158 36.5997L15.9248 39.213H17.9068Z" fill="#AFB1B8"/>
<path d="M27.5824 41.3969H26.2313L23.2021 37.1866V41.3969H21.8543V35.2054H23.2021L26.2313 39.44V35.2054H27.5824V41.3969Z" fill="#AFB1B8"/>
<path d="M35.2926 39.9149C35.0133 40.3823 34.5876 40.7626 34.0703 41.0068C33.4822 41.2788 32.8295 41.4128 32.1709 41.397H29.766V35.2055H32.1709C32.8284 35.1898 33.4802 35.3206 34.0703 35.5866C34.5875 35.8253 35.0136 36.2017 35.2926 36.6664C35.5707 37.17 35.7156 37.7263 35.7156 38.2906C35.7156 38.8549 35.5707 39.4113 35.2926 39.9149ZM33.7466 39.7667C34.1322 39.3554 34.3442 38.8312 34.3442 38.2891C34.3442 37.7471 34.1322 37.2229 33.7466 36.8116C33.2805 36.439 32.6727 36.2499 32.0552 36.2853H31.1171V40.293H32.0552C32.6727 40.3283 33.2805 40.1392 33.7466 39.7667Z" fill="#AFB1B8"/>
<path d="M19.1158 0.766724C19.1158 0.766724 36.5545 6.79486 36.1845 15.518V30.2722C36.1845 30.2722 18.7591 24.2411 19.1225 15.518L19.1158 0.766724Z" fill="#AFB1B8"/>
<path d="M51.7203 26.8181C55.0138 24.7428 58.8233 23.4574 62.8 23.0796V18.4609C58.2179 20.0779 54.3309 23.0098 51.7203 26.8181Z" fill="#AFB1B8"/>
<path d="M49.7417 28.2095C52.4373 23.2396 57.1105 19.4046 62.8 17.4932V4.18469C62.8 4.18469 37.965 12.7717 38.4903 25.1939V46.2001C38.4903 46.2001 39.5969 45.816 41.3378 45.0961C41.3378 44.4247 41.3378 43.7472 41.4171 43.0666C41.9311 37.2996 44.9254 31.9556 49.7417 28.2095Z" fill="#AFB1B8"/>
<path d="M47.3797 36.0131C47.5102 34.5563 47.8013 33.1152 48.2485 31.712C45.2496 34.9471 43.4335 38.9614 43.0556 43.1906C43.0192 43.5899 42.9994 43.9891 42.9895 44.4005C44.4001 43.7804 46.0418 43.0061 47.7662 42.0957C47.3262 40.0948 47.1961 38.0472 47.3797 36.0131Z" fill="#AFB1B8"/>
<path d="M48.3675 36.0887C48.2021 37.929 48.3055 39.7813 48.6747 41.5966C55.4599 37.8793 63.0841 32.1355 62.7901 25.1939V24.589C57.9424 25.0856 53.4068 27.026 49.8804 30.112C49.0548 32.0244 48.5449 34.0387 48.3675 36.0887Z" fill="#AFB1B8"/>
</svg>

<svg width="63" height="47" fill="none" xmlns="http://www.w3.org/2000/svg"><path d="M5.017 38.735c.244.276.373.622.367.977a1.43 1.43 0 01-.131.676 1.559 1.559 0 01-.438.558 2.627 2.627 0 01-1.651.45H.26v-6.19h2.844a2.593 2.593 0 011.576.41c.184.142.33.32.425.52.096.202.139.42.127.64.016.34-.1.677-.33.946-.221.246-.526.416-.866.484.385.064.733.252.98.53zm-3.406-.934h1.216c.276.018.55-.055.773-.206a.737.737 0 00.207-.275.679.679 0 00.054-.33.702.702 0 00-.055-.329.76.76 0 00-.203-.276 1.255 1.255 0 00-.796-.209H1.61v1.625zm2.108 2.374a.776.776 0 00.224-.284.71.71 0 00.063-.345.722.722 0 00-.066-.35.788.788 0 00-.228-.285 1.338 1.338 0 00-.826-.224H1.611v1.703h1.292c.29.015.578-.06.816-.215zM10.83 41.397l-1.581-2.42h-.595v2.42H7.293v-6.191H9.87a2.699 2.699 0 011.793.526c.36.336.578.779.613 1.248.035.47-.114.936-.421 1.314a2.148 2.148 0 01-1.229.629l1.685 2.474h-1.48zm-2.176-3.264h1.113c.773 0 1.16-.312 1.16-.937a.852.852 0 00-.063-.375.917.917 0 00-.221-.321 1.282 1.282 0 00-.876-.251H8.641l.013 1.884zM18.27 40.15h-2.712l-.479 1.247h-1.427l2.49-6.122h1.544l2.48 6.122H18.74l-.469-1.246zm-.363-.937l-.991-2.613-.991 2.613h1.982zM27.582 41.397h-1.35l-3.03-4.21v4.21h-1.348v-6.192h1.348l3.03 4.235v-4.235h1.35v6.192zM35.293 39.915c-.28.467-.705.848-1.223 1.092a4.288 4.288 0 01-1.9.39h-2.404v-6.191h2.405a4.376 4.376 0 011.9.38c.517.24.943.616 1.222 1.08.278.504.423 1.06.423 1.625 0 .564-.145 1.12-.423 1.624zm-1.546-.148a2.16 2.16 0 00.597-1.478c0-.542-.212-1.066-.597-1.477a2.488 2.488 0 00-1.692-.527h-.938v4.008h.938a2.49 2.49 0 001.692-.526zM19.116.767s17.438 6.028 17.069 14.751v14.754s-17.426-6.03-17.063-14.754L19.116.767zM51.72 26.818c3.294-2.075 7.103-3.36 11.08-3.738v-4.62c-4.582 1.618-8.47 4.55-11.08 8.358z" fill="#AFB1B8"/><path d="M49.742 28.21c2.695-4.97 7.369-8.805 13.058-10.717V4.185s-24.835 8.587-24.31 21.009V46.2s1.107-.384 2.848-1.104c0-.671 0-1.349.08-2.03.513-5.766 3.507-11.11 8.324-14.857z" fill="#AFB1B8"/><path d="M47.38 36.013c.13-1.457.421-2.898.868-4.301-2.998 3.235-4.814 7.25-5.192 11.479-.037.399-.057.798-.066 1.21a74.73 74.73 0 004.776-2.305c-.44-2.001-.57-4.049-.386-6.083zM48.367 36.089a19.055 19.055 0 00.308 5.508c6.785-3.718 14.41-9.462 14.115-16.403v-.605c-4.848.497-9.383 2.437-12.91 5.523a19.259 19.259 0 00-1.513 5.977z" fill="#AFB1B8"/></svg>
